React/src/assets/images/backend/docker.svg

<svg width="130" height="120" viewBox="0 0 130 120" fill="none" xmlns="http://www.w3.org/2000/svg">
<path d="M28.5123 90.0882C25.0245 90.0882 21.8538 86.9578 21.8538 83.1317C21.8538 79.3056 24.7075 76.1752 28.5123 76.1752C32.3172 76.1752 35.1709 79.3056 35.1709 83.1317C35.1709 86.9578 32.0002 90.0882 28.5123 90.0882ZM110.317 52.1752C109.683 46.61 106.512 42.0882 102.39 38.61L100.805 37.2186L99.5367 38.9578C97.0002 42.0882 96.0489 47.6534 96.366 51.8273C96.6831 54.9578 97.6343 58.0882 99.2197 60.523C97.9514 61.2186 96.366 61.9143 95.0977 62.61C92.2441 63.6534 89.3904 64.0013 86.5367 64.0013H4.41479L4.09771 66.0882C3.46357 72.6969 4.41479 79.6534 6.95137 85.9143L8.21967 88.3491V88.6969C15.8294 102.61 29.4636 108.871 44.366 108.871C72.9026 108.871 96.366 95.3056 107.464 66.0882C114.756 66.436 122.049 64.3491 125.537 56.6969L126.488 54.9578L124.903 53.9143C120.781 51.1317 115.073 50.7839 110.317 52.1752V52.1752ZM69.4148 46.61H57.0489V60.1752H69.4148V46.61ZM69.4148 29.5665H57.0489V43.1317H69.4148V29.5665ZM69.4148 12.1752H57.0489V25.7404H69.4148V12.1752ZM84.6343 46.61H72.2684V60.1752H84.6343V46.61ZM38.6587 46.61H26.2928V60.1752H38.6587V46.61ZM54.1953 46.61H41.8294V60.1752H54.1953V46.61ZM23.4392 46.61H11.0733V60.1752H23.4392V46.61ZM54.1953 29.5665H41.8294V43.1317H54.1953V29.5665ZM38.6587 29.5665H26.2928V43.1317H38.6587V29.5665Z" fill="#0087C9"/>
</svg>

<svg width="130" height="120" fill="none" xmlns="http://www.w3.org/2000/svg"><path d="M28.512 90.088c-3.488 0-6.658-3.13-6.658-6.956 0-3.826 2.854-6.957 6.658-6.957 3.805 0 6.659 3.13 6.659 6.957 0 3.826-3.17 6.956-6.659 6.956zm81.805-37.913c-.634-5.565-3.805-10.087-7.927-13.565l-1.585-1.391-1.268 1.739c-2.537 3.13-3.488 8.695-3.171 12.87.317 3.13 1.268 6.26 2.854 8.695-1.269.696-2.854 1.391-4.122 2.087-2.854 1.043-5.708 1.391-8.561 1.391H4.415l-.317 2.087c-.634 6.609.317 13.565 2.853 19.826L8.22 88.35v.348c7.61 13.913 21.244 20.174 36.146 20.174 28.537 0 52-13.565 63.098-42.783 7.292.348 14.585-1.739 18.073-9.391l.951-1.74-1.585-1.043c-4.122-2.782-9.83-3.13-14.586-1.739zM69.415 46.61H57.049v13.565h12.366V46.61zm0-17.043H57.049v13.565h12.366V29.567zm0-17.392H57.049V25.74h12.366V12.175zm15.22 34.435H72.267v13.565h12.366V46.61zm-45.976 0H26.293v13.565h12.366V46.61zm15.536 0H41.83v13.565h12.366V46.61zm-30.756 0H11.073v13.565H23.44V46.61zm30.756-17.043H41.83v13.565h12.366V29.567zm-15.536 0H26.293v13.565h12.366V29.567z" fill="#0087C9"/></svg>
